X:242
T:B242-  Jenny's cogwheel
Q:1/4=120
L:1/4
M:C|
K:Gmixolydian
G/2G/2BdD|(G/2A/2)BA2|G^fgB|ee/2f/2^d2|\
(e/2d/2) e/2^f/2gB|(c/2B/2) (A/2G/2)^F3/2F/2|\
G^F/2E/2e3/2d/2|B/2B/2 A3/4G/4.G2|]

